package/converter/svg/light/square-arrow-up-right.svg

<svg xmlns="http://www.w3.org/2000/svg" viewBox="0 0 448 512"><!-- Font Awesome Pro 6.0.0-alpha2 by @fontawesome - https://fontawesome.com License - https://fontawesome.com/license (Commercial License) --><path d="M0 96V416C0 451.344 28.654 480 64 480H384C419.346 480 448 451.344 448 416V96C448 60.656 419.346 32 384 32H64C28.654 32 0 60.656 0 96ZM32 96C32 78.355 46.355 64 64 64H384C401.645 64 416 78.355 416 96V416C416 433.645 401.645 448 384 448H64C46.355 448 32 433.645 32 416V96ZM132.688 324.688C126.438 330.938 126.438 341.063 132.688 347.312C135.812 350.438 139.906 352 144 352S152.188 350.438 155.312 347.312L288 214.625V304C288 312.844 295.156 320 304 320S320 312.844 320 304V176.375C320 167.563 312.859 160.406 304.047 160.375L176.047 160H176C167.188 160 160.031 167.125 160 175.969C159.969 184.781 167.109 191.969 175.953 192L265.102 192.273L132.688 324.688Z"/></svg>

<svg xmlns="http://www.w3.org/2000/svg" viewBox="0 0 448 512"><!--! Font Awesome Pro 6.6.0 by @fontawesome - https://fontawesome.com License - https://fontawesome.com/license (Commercial License) Copyright 2024 Fonticons, Inc. --><path d="M384 64c17.7 0 32 14.3 32 32l0 320c0 17.7-14.3 32-32 32L64 448c-17.7 0-32-14.3-32-32L32 96c0-17.7 14.3-32 32-32l320 0zm64 32c0-35.3-28.7-64-64-64L64 32C28.7 32 0 60.7 0 96L0 416c0 35.3 28.7 64 64 64l320 0c35.3 0 64-28.7 64-64l0-320zM168 160c-8.8 0-16 7.2-16 16s7.2 16 16 16l97.4 0L132.7 324.7c-6.2 6.2-6.2 16.4 0 22.6s16.4 6.2 22.6 0L288 214.6 288 320c0 8.8 7.2 16 16 16s16-7.2 16-16l0-144c0-8.8-7.2-16-16-16l-136 0z"/></svg>
